react/assets/forus-webshop/resources/_webshop-common/assets/img/file-icon-jpeg.svg

<svg xmlns="http://www.w3.org/2000/svg" width="24" height="24" fill="none" viewBox="0 0 24 24"><path fill="#E2E5E7" d="M6 0C5.175 0 4.5 0.675 4.5 1.5V22.5C4.5 23.325 5.175 24 6 24H21C21.825 24 22.5 23.325 22.5 22.5V6L16.5 0H6Z"/><path fill="#B0B7BD" d="M18 6H22.5L16.5 0V4.5C16.5 5.325 17.175 6 18 6Z"/><path fill="#CAD1D8" d="M22.5 10.5L18 6H22.5V10.5Z"/><path fill="#126871" d="M19.5 19.5C19.5 19.9125 19.1625 20.25 18.75 20.25H2.25C1.8375 20.25 1.5 19.9125 1.5 19.5V12C1.5 11.5875 1.8375 11.25 2.25 11.25H18.75C19.1625 11.25 19.5 11.5875 19.5 12V19.5Z"/><path fill="#CAD1D8" d="M18.75 20.25H4.5V21H18.75C19.1625 21 19.5 20.6625 19.5 20.25V19.5C19.5 19.9125 19.1625 20.25 18.75 20.25Z"/><path fill="#fff" d="M6.1165 18.055C5.87083 18.055 5.6435 18.0073 5.4345 17.912C5.22917 17.813 5.0605 17.6755 4.9285 17.4995L5.3355 17.01C5.54817 17.3033 5.803 17.45 6.1 17.45C6.49967 17.45 6.6995 17.2135 6.6995 16.7405V14.7495H5.33V14.15H7.4145V16.702C7.4145 17.153 7.3045 17.4922 7.0845 17.7195C6.8645 17.9432 6.54183 18.055 6.1165 18.055ZM10.2014 14.15C10.5351 14.15 10.8247 14.205 11.0704 14.315C11.3197 14.425 11.5104 14.5827 11.6424 14.788C11.7744 14.9933 11.8404 15.2372 11.8404 15.5195C11.8404 15.7982 11.7744 16.042 11.6424 16.251C11.5104 16.4563 11.3197 16.614 11.0704 16.724C10.8247 16.834 10.5351 16.889 10.2014 16.889H9.33239V18H8.61739V14.15H10.2014ZM10.1684 16.284C10.4801 16.284 10.7166 16.218 10.8779 16.086C11.0392 15.954 11.1199 15.7652 11.1199 15.5195C11.1199 15.2738 11.0392 15.085 10.8779 14.953C10.7166 14.821 10.4801 14.755 10.1684 14.755H9.33239V16.284H10.1684ZM15.4371 16.031H16.1136V17.5655C15.9156 17.7232 15.6846 17.8442 15.4206 17.9285C15.1566 18.0128 14.8853 18.055 14.6066 18.055C14.2143 18.055 13.8604 17.9707 13.5451 17.802C13.2298 17.6297 12.9823 17.3932 12.8026 17.0925C12.6229 16.7918 12.5331 16.4527 12.5331 16.075C12.5331 15.6973 12.6229 15.3582 12.8026 15.0575C12.9823 14.7568 13.2298 14.5222 13.5451 14.3535C13.8641 14.1812 14.2216 14.095 14.6176 14.095C14.9403 14.095 15.2336 14.1482 15.4976 14.2545C15.7616 14.3608 15.9834 14.5167 16.1631 14.722L15.7121 15.162C15.4188 14.8687 15.0649 14.722 14.6506 14.722C14.3793 14.722 14.1373 14.7788 13.9246 14.8925C13.7156 15.0062 13.5506 15.1657 13.4296 15.371C13.3123 15.5763 13.2536 15.811 13.2536 16.075C13.2536 16.3317 13.3123 16.5627 13.4296 16.768C13.5506 16.9733 13.7156 17.1347 13.9246 17.252C14.1373 17.3693 14.3774 17.428 14.6451 17.428C14.9458 17.428 15.2098 17.362 15.4371 17.23V16.031Z"/></svg>

<?xml version="1.0" encoding="UTF-8" standalone="no"?><svg width="100%" height="100%" viewBox="0 0 24 24" version="1.1" xmlns="http://www.w3.org/2000/svg" xmlns:xlink="http://www.w3.org/1999/xlink" xml:space="preserve" style="fill-rule:evenodd;clip-rule:evenodd;stroke-linejoin:round;stroke-miterlimit:2;"><path d="M6,0c-0.825,0 -1.5,0.675 -1.5,1.5l0,21c0,0.825 0.675,1.5 1.5,1.5l15,0c0.825,0 1.5,-0.675 1.5,-1.5l0,-16.5l-6,-6l-10.5,0Z" style="fill:#f5f5f5;fill-rule:nonzero;"/><path d="M18,6l4.5,0l-6,-6l0,4.5c0,0.825 0.675,1.5 1.5,1.5Z" style="fill:#cdced2;fill-rule:nonzero;"/><path d="M22.5,10.5l-4.5,-4.5l4.5,0l0,4.5Z" style="fill:#cdced2;fill-opacity:0.29;fill-rule:nonzero;"/><path d="M18.75,20.25l-14.25,0l0,0.75l14.25,0c0.413,0 0.75,-0.337 0.75,-0.75l0,-0.75c0,0.413 -0.337,0.75 -0.75,0.75Z" style="fill:#cdced2;fill-opacity:0.29;fill-rule:nonzero;"/><path d="M19.5,19.5c0,0.413 -0.337,0.75 -0.75,0.75l-16.5,0c-0.413,0 -0.75,-0.337 -0.75,-0.75l0,-7.5c0,-0.412 0.337,-0.75 0.75,-0.75l16.5,0c0.413,0 0.75,0.338 0.75,0.75l0,7.5Z" style="fill:#282b39;fill-rule:nonzero;"/><path d="M6.117,18.055c-0.246,0 -0.473,-0.048 -0.683,-0.143c-0.205,-0.099 -0.373,-0.236 -0.506,-0.412l0.407,-0.49c0.213,0.293 0.468,0.44 0.765,0.44c0.4,-0 0.599,-0.237 0.599,-0.71l0,-1.991l-1.369,0l0,-0.599l2.085,-0l-0,2.552c-0,0.451 -0.111,0.79 -0.33,1.017c-0.221,0.224 -0.543,0.336 -0.968,0.336Zm4.084,-3.905c0.334,0 0.624,0.055 0.869,0.165c0.25,0.11 0.44,0.268 0.572,0.473c0.132,0.205 0.198,0.449 0.198,0.732c0,0.278 -0.066,0.522 -0.198,0.731c-0.132,0.205 -0.322,0.363 -0.572,0.473c-0.245,0.11 -0.535,0.165 -0.869,0.165l-0.869,0l0,1.111l-0.715,0l0,-3.85l1.584,0Zm-0.033,2.134c0.312,0 0.549,-0.066 0.71,-0.198c0.161,-0.132 0.242,-0.321 0.242,-0.566c-0,-0.246 -0.081,-0.435 -0.242,-0.567c-0.161,-0.132 -0.398,-0.198 -0.71,-0.198l-0.836,0l0,1.529l0.836,0Zm5.269,-0.253l0.677,0l-0,1.535c-0.198,0.157 -0.429,0.278 -0.693,0.363c-0.264,0.084 -0.536,0.126 -0.814,0.126c-0.393,0 -0.747,-0.084 -1.062,-0.253c-0.315,-0.172 -0.563,-0.409 -0.742,-0.709c-0.18,-0.301 -0.27,-0.64 -0.27,-1.018c0,-0.378 0.09,-0.717 0.27,-1.017c0.179,-0.301 0.427,-0.536 0.742,-0.704c0.319,-0.173 0.677,-0.259 1.073,-0.259c0.322,0 0.616,0.053 0.88,0.16c0.264,0.106 0.485,0.262 0.665,0.467l-0.451,0.44c-0.293,-0.293 -0.647,-0.44 -1.061,-0.44c-0.272,0 -0.514,0.057 -0.726,0.171c-0.209,0.113 -0.374,0.273 -0.495,0.478c-0.118,0.205 -0.176,0.44 -0.176,0.704c-0,0.257 0.058,0.488 0.176,0.693c0.121,0.205 0.286,0.367 0.495,0.484c0.212,0.117 0.452,0.176 0.72,0.176c0.301,0 0.565,-0.066 0.792,-0.198l0,-1.199Z" style="fill:#fff;fill-rule:nonzero;"/></svg>
